X:3
T:Ad\`ele's Delight
C:Colin Hume, 1996
L:1/4
M:2/2
S:Colin Hume's website,  colinhume.com  - chords can also be printed below the stave.
Q:1/2=116
H:For the dance by Ann Higley (now Ann Barlow)
K:G
P:A
|: D | "G"GG "D"!turn!AG/A/ | "G"Bd "C"e2 | "G"dg "C"f3/e/ | "G/B"d2- "D7/A"dc | "G"Bd "Em"GA/B/ | "Am"c/B/A/G/ "D"FD | "C"EG "D7"F/G/A/F/ | "G"G2- "/"G :|
P:B
B | "G"dz "-"zB | "Am"cz "-"zA | "G/B"B3/A/ "C"GB | "D"Az "-"zD | "Em"Gz "-"zE | "D"Az "-"zB | "C"c3/d/ "Am"e/d/c/B/ | "D"A2- "/"AB |
P:C
"G"d3/c/ "/"Bd | "Am"c3/B/ "/"Ac | "G/B"B3/A/ "C"G/A/B/G/ | "D"A2 "/"DE/F/ | "Em"GG "D"!turn!AG/A/ | "G"Bd "C"e3/c/ | "G/D"Bd "D7"c/B/A | "G"G2- "/"G |]

